packages/axiom-materials/src/icon_svgs/reddit.svg

<svg height="16" viewBox="0 0 16 16" width="16" xmlns="http://www.w3.org/2000/svg"><g fill="none" fill-rule="evenodd"><path d="m16 8c0 4.41825-3.58175 8-8 8s-8-3.58175-8-8 3.58175-8 8-8 8 3.58175 8 8" fill="#ff4500"/><path d="m13.286375 7.958375c0-.644375-.52225-1.166625-1.166625-1.166625-.3145 0-.599375.125-.809125.327375-.7975-.5755-1.89625-.947125-3.12-.989875l.531375-2.500375 1.736375.369125c.021125.441375.382625.79375.829375.79375.46025 0 .83325-.373125.83325-.833375s-.373-.833375-.83325-.833375c-.327375 0-.60775.1905-.744125.465125l-1.93875-.412125c-.054-.01175-.1105-.001125-.15675.029125-.046375.03-.078875.077375-.090375.131375l-.5935 2.79c-1.24175.034375-2.358125.406625-3.16575.9885-.209625-.201125-.4935-.32525-.806875-.32525-.644375 0-1.166625.52225-1.166625 1.166625 0 .474125.28325.88125.68925 1.06375-.018.116-.027875.233625-.027875.352875 0 1.795 2.089375 3.25 4.66675 3.25 2.57725 0 4.666625-1.455 4.666625-3.25 0-.1185-.009625-.235375-.027375-.3505.408625-.1815.694-.590125.694-1.066125z" fill="#fff"/><path d="m9.934375 10.99375c-.56875.568-1.658625.612125-1.979.612125-.320625 0-1.4105-.044125-1.978625-.61225-.08425-.08425-.08425-.221.000125-.305375.08425-.08425.221-.084375.305375 0 .3585.3585 1.125375.48575 1.673125.48575s1.31475-.12725 1.673875-.485875c.0845-.08425.221125-.084125.305375.00025s.08425.221125-.00025.305375zm-.146625-1.3685c-.4595 0-.833375-.373875-.833375-.833375s.373875-.8335.833375-.8335.83325.374.83325.8335-.37375.833375-.83325.833375zm-4.5-.8335c0-.4595.374-.833375.833625-.833375.45925 0 .833.373875.833.833375 0 .459375-.37375.83325-.833.83325-.459625 0-.833625-.373875-.833625-.83325z" fill="#ff4500"/></g></svg>

<?xml version="1.0" encoding="UTF-8"?>
<svg width="16px" height="16px" viewBox="0 0 16 16" version="1.1" xmlns="http://www.w3.org/2000/svg" xmlns:xlink="http://www.w3.org/1999/xlink">
    <!-- Generator: Sketch 50.2 (55047) - http://www.bohemiancoding.com/sketch -->
    <title>reddit</title>
    <desc>Created with Sketch.</desc>
    <defs></defs>
    <g id="reddit" stroke="none" stroke-width="1" fill="none" fill-rule="evenodd">
        <g>
            <path d="M16,8 C16,12.41825 12.41825,16 8,16 C3.58175,16 0,12.41825 0,8 C0,3.58175 3.58175,0 8,0 C12.41825,0 16,3.58175 16,8" id="background" fill="#FF4500"></path>
            <path d="M13.286375,7.958375 C13.286375,7.314 12.764125,6.79175 12.11975,6.79175 C11.80525,6.79175 11.520375,6.91675 11.310625,7.119125 C10.513125,6.543625 9.414375,6.172 8.190625,6.12925 L8.722,3.628875 L10.458375,3.998 C10.4795,4.439375 10.841,4.79175 11.28775,4.79175 C11.748,4.79175 12.121,4.418625 12.121,3.958375 C12.121,3.498125 11.748,3.125 11.28775,3.125 C10.960375,3.125 10.68,3.3155 10.543625,3.590125 L8.604875,3.178 C8.550875,3.16625 8.494375,3.176875 8.448125,3.207125 C8.40175,3.237125 8.36925,3.2845 8.35775,3.3385 L7.76425,6.1285 C6.5225,6.162875 5.406125,6.535125 4.5985,7.117 C4.388875,6.915875 4.105,6.79175 3.791625,6.79175 C3.14725,6.79175 2.625,7.314 2.625,7.958375 C2.625,8.4325 2.90825,8.839625 3.31425,9.022125 C3.29625,9.138125 3.286375,9.25575 3.286375,9.375 C3.286375,11.17 5.37575,12.625 7.953125,12.625 C10.530375,12.625 12.61975,11.17 12.61975,9.375 C12.61975,9.2565 12.610125,9.139625 12.592375,9.0245 C13.001,8.843 13.286375,8.434375 13.286375,7.958375 Z" id="face" fill="#FFFFFF"></path>
            <path d="M9.934375,10.99375 C9.365625,11.56175 8.27575,11.605875 7.955375,11.605875 C7.63475,11.605875 6.544875,11.56175 5.97675,10.993625 C5.8925,10.909375 5.8925,10.772625 5.976875,10.68825 C6.061125,10.604 6.197875,10.603875 6.28225,10.68825 C6.64075,11.04675 7.407625,11.174 7.955375,11.174 C8.503125,11.174 9.270125,11.04675 9.62925,10.688125 C9.71375,10.603875 9.850375,10.604 9.934625,10.688375 C10.018875,10.77275 10.018875,10.9095 9.934375,10.99375 Z M9.78775,9.62525 C9.32825,9.62525 8.954375,9.251375 8.954375,8.791875 C8.954375,8.332375 9.32825,7.958375 9.78775,7.958375 C10.24725,7.958375 10.621,8.332375 10.621,8.791875 C10.621,9.251375 10.24725,9.62525 9.78775,9.62525 Z M5.28775,8.79175 C5.28775,8.33225 5.66175,7.958375 6.121375,7.958375 C6.580625,7.958375 6.954375,8.33225 6.954375,8.79175 C6.954375,9.251125 6.580625,9.625 6.121375,9.625 C5.66175,9.625 5.28775,9.251125 5.28775,8.79175 Z" id="face" fill="#FF4500"></path>
        </g>
    </g>
</svg>
